Vector-dark/symbolic/status/arch-unknown-symbolic.svg

<svg width="16" height="16" version="1.1" xmlns="http://www.w3.org/2000/svg">
 <path d="m8 0.5-6 2v7c0 2.07 1.5795 3.4895 2.9395 4.4395s3.0605 1.5605 3.0605 1.5605 1.7005-0.61055 3.0605-1.5605c1.36-0.96 2.9395-2.3995 2.9395-4.4395v-7l-6-2zm0 4.5c0.61792 0.00131 1.22 0.19417 1.7246 0.55078l0.27539-0.55078 1 2h-2l0.26953-0.53906c-0.35718-0.29597-0.80566-0.45952-1.2695-0.46094-1.1046 0-2 0.89543-2 2h-1c0-1.6569 1.3431-3 3-3zm2 3h1c0 1.6569-1.3431 3-3 3-0.61802-0.001663-1.2201-0.19387-1.7246-0.55078l-0.27539 0.55078-1-2h2l-0.26953 0.53906c0.35718 0.29597 0.80566 0.45952 1.2695 0.46094 1.1046 0 2-0.89543 2-2z" fill="#dfdfdf"/>
</svg>

<svg xmlns="http://www.w3.org/2000/svg" width="16" height="16" version="1.1">
 <path style="fill:#dfdfdf" d="M 8,1 C 6.175,2.725 3,4 2,4.25 2,9 4.25,14.25 8,15 11.75,14.25 14,9 14,4.25 13,4 9.825,2.725 8,1 Z M 8,5 C 8.6179,5.0016 9.2202,5.194 9.7246,5.5508 L 10,5 11,7 H 9 L 9.2695,6.4609 C 8.9126,6.1647 8.4638,6.0018 8,6 6.8954,6 6,6.8954 6,8 H 5 C 5,6.3431 6.3431,5 8,5 Z M 10,8 H 11 C 11,9.6569 9.6569,11 8,11 7.3821,10.998 6.7798,10.806 6.2754,10.449 L 6,11 5,9 H 7 L 6.7305,9.5391 C 7.0874,9.8353 7.5362,9.9982 8,10 9.1046,10 10,9.1046 10,8 Z"/>
</svg>
